svgs/sharp-regular/hand-horns.svg

<svg xmlns="http://www.w3.org/2000/svg" viewBox="0 0 384 512"><!--! Font Awesome Pro 6.6.0 by @fontawesome - https://fontawesome.com License - https://fontawesome.com/license (Commercial License) Copyright 2024 Fonticons, Inc. --><path d="M16 0L40 0l80 0 24 0 0 24 0 120 56 0 24 0 0 24 0 8 32 0 0-88 0-24 24 0 80 0 24 0 0 24 0 168 0 32 0 56c0 92.8-75.2 168-168 168l-48 0C75.2 512 0 436.8 0 344c0 0 0 0 0 0l0-24s0 0 0 0l0-56 0-24 16 0L16 24 16 0zM48 320s0 0 0 0l0 24s0 0 0 0c0 66.3 53.7 120 120 120l48 0c66.3 0 120-53.7 120-120l0-56 0-32 0-144-32 0 0 64 0 24 0 56 0 88 0 24-24 0-56 0-24 0-24 0-56 0-24 0 0-48 24 0 56 0 0-32-56 0-72 0 0 32zM176 200l0-8-32 0 0 48 32 0 0-40zM96 168l0-24 0-96L64 48l0 192 32 0 0-72zm160 56l-32 0 0 40 0 56 32 0 0-64 0-32z"/></svg>

<svg xmlns="http://www.w3.org/2000/svg" viewBox="0 0 384 512"><!--! Font Awesome Pro 6.5.2 by @fontawesome - https://fontawesome.com License - https://fontawesome.com/license (Commercial License) Copyright 2024 Fonticons, Inc. --><path d="M16 0H40h80 24V24 144h56 24v24 8h32V88 64h24 80 24V88 256v32 56c0 92.8-75.2 168-168 168H168C75.2 512 0 436.8 0 344c0 0 0 0 0 0V320v0V264 240H16V24 0zM48 320v0 24s0 0 0 0c0 66.3 53.7 120 120 120h48c66.3 0 120-53.7 120-120V288 256 112H304v64 24 56 88 24H280 224 200 176 120 96V320h24 56V288H120 48v32zM176 200v-8H144v48h32V200zM96 168V144 48H64V240H96V168zm160 56H224v40 56h32V256 224z"/></svg>
